src/assets/Spanner.svg

<svg viewBox="0 0 24 24" fill="none" xmlns="http://www.w3.org/2000/svg">
  <path fill-rule="evenodd" clip-rule="evenodd"
    d="M8.88554 0.706684C9.5583 1.10971 9.99981 1.85959 9.99981 2.71149V7.09375L11.9998 8.38397L13.9998 7.09375V2.71149C13.9998 1.85959 14.4413 1.10971 15.1141 0.706683C15.8126 0.288226 16.7377 0.267359 17.4996 0.836252C19.7433 2.51169 21.1998 5.1919 21.1998 8.21198C21.1998 11.9756 18.94 15.2088 15.7081 16.6337C15.6593 16.6552 15.6268 16.6857 15.6105 16.7086C15.6033 16.7187 15.6007 16.725 15.5998 16.7279V22.4C15.5998 23.0627 15.0625 23.6 14.3998 23.6C13.7371 23.6 13.1998 23.0627 13.1998 22.4V16.7266C13.1998 15.6536 13.8964 14.8095 14.7399 14.4377C17.1331 13.3826 18.7998 10.9906 18.7998 8.21198C18.7998 6.13528 17.87 4.27602 16.3998 3.02715V7.09375C16.3998 7.90902 15.9859 8.66855 15.3008 9.11051L13.3008 10.4007C12.5087 10.9117 11.4909 10.9117 10.6988 10.4007L8.69877 9.1105C8.01368 8.66855 7.59981 7.90902 7.59981 7.09375V3.02715C6.12964 4.27602 5.1998 6.13528 5.1998 8.21198C5.1998 10.8775 6.73329 13.187 8.97163 14.3025C9.76201 14.6963 10.3998 15.5166 10.3998 16.5409V22.4C10.3998 23.0627 9.86255 23.6 9.19981 23.6C8.53706 23.6 7.99981 23.0627 7.99981 22.4V16.5423C7.99903 16.5396 7.99667 16.5337 7.99023 16.5241C7.97577 16.5026 7.94649 16.4731 7.9012 16.4505C4.8797 14.9448 2.7998 11.8224 2.7998 8.21198C2.7998 5.1919 4.25627 2.51168 6.50003 0.836252C7.26189 0.267358 8.18702 0.288227 8.88554 0.706684ZM8.00012 16.5439C8.00008 16.5439 7.99995 16.5434 7.99987 16.5425C8.00012 16.5434 8.00016 16.5438 8.00012 16.5439ZM15.5995 16.7296C15.5994 16.7296 15.5995 16.7291 15.5998 16.728C15.5997 16.7291 15.5995 16.7296 15.5995 16.7296Z"
    fill="currentColor" />
</svg>

<svg xmlns="http://www.w3.org/2000/svg" fill="none" viewBox="0 0 24 24"><path fill="currentColor" fill-rule="evenodd" d="M8.886.707A2.326 2.326 0 0 1 10 2.71v4.383l2 1.29 2-1.29V2.71c0-.851.441-1.601 1.114-2.004a2.118 2.118 0 0 1 2.386.13 9.202 9.202 0 0 1-1.792 15.797.24.24 0 0 0-.097.075.073.073 0 0 0-.011.019V22.4a1.2 1.2 0 0 1-2.4 0v-5.673c0-1.073.696-1.918 1.54-2.29a6.802 6.802 0 0 0 1.66-11.41v4.067a2.4 2.4 0 0 1-1.1 2.017l-2 1.29a2.4 2.4 0 0 1-2.601 0l-2-1.29a2.4 2.4 0 0 1-1.1-2.017V3.027a6.783 6.783 0 0 0-2.4 5.185 6.8 6.8 0 0 0 3.773 6.09c.79.394 1.428 1.215 1.428 2.239V22.4a1.2 1.2 0 0 1-2.4 0v-5.858a.071.071 0 0 0-.01-.018.234.234 0 0 0-.089-.073A9.2 9.2 0 0 1 2.8 8.212c0-3.02 1.456-5.7 3.7-7.376a2.119 2.119 0 0 1 2.386-.13M8 16.544v-.002zm7.6.186v-.002z" clip-rule="evenodd"/></svg>
